icons/themes/default/save.svg

<svg viewBox="0 0 16 16" fill="none" xmlns="http://www.w3.org/2000/svg">
<path fill-rule="evenodd" clip-rule="evenodd" d="M3.51864 2.5579C3.64782 2.51983 3.78289 2.5 3.92 2.5H4.17004V2.73151L3.51864 2.5579ZM3.51849 2.55794C3.51854 2.55793 3.51859 2.55791 3.51864 2.5579L2.2088 2.2088C2.66264 1.75496 3.27818 1.5 3.92 1.5H4.67004H9.57004H10.53C10.9011 1.5 11.2487 1.64161 11.5136 1.90645L14.1136 4.50645L14.1139 4.50683C14.2429 4.63611 14.3452 4.78955 14.4149 4.95838C14.4845 5.12698 14.5202 5.30761 14.52 5.49L13.3787 5.18582L10.8064 2.61355C10.7313 2.53839 10.6389 2.5 10.53 2.5H10.07V4.30399L13.3787 5.18582L13.3797 5.18676L10.07 4.30448V4.67C10.07 5.03865 9.9236 5.3922 9.66292 5.65288C9.40225 5.91355 9.0487 6.06 8.68004 6.06H5.56004C5.19139 6.06 4.83784 5.91355 4.57717 5.65288C4.31649 5.3922 4.17004 5.03865 4.17004 4.67V2.73164L3.51849 2.55794ZM4.17004 13.52H3.92C3.54339 13.52 3.18221 13.3704 2.91591 13.1041C2.64961 12.8378 2.5 12.4766 2.5 12.1V3.92C2.5 3.54339 2.64961 3.18221 2.91591 2.91591C3.08522 2.74659 3.29289 2.62445 3.51849 2.55794L2.2088 2.2088C1.75496 2.66264 1.5 3.27818 1.5 3.92V12.1C1.5 12.7418 1.75496 13.3574 2.2088 13.8112C2.66264 14.265 3.27818 14.52 3.92 14.52H12.1C12.7418 14.52 13.3574 14.265 13.8112 13.8112C14.265 13.3574 14.52 12.7418 14.52 12.1L14.52 5.49076L13.3797 5.18676L13.4061 5.21317L13.4062 5.21327C13.4423 5.24952 13.471 5.29254 13.4905 5.33987C13.5101 5.38724 13.5201 5.438 13.52 5.48924L13.52 5.49V12.1C13.52 12.4766 13.3704 12.8378 13.1041 13.1041C12.8378 13.3704 12.4766 13.52 12.1 13.52H11.85V9.56999C11.85 9.38745 11.8141 9.2067 11.7442 9.03806C11.6744 8.86942 11.572 8.71619 11.4429 8.58711C11.3138 8.45804 11.1606 8.35565 10.992 8.2858C10.8233 8.21595 10.6426 8.17999 10.46 8.17999H5.56004C5.37751 8.17999 5.19676 8.21595 5.02811 8.2858C4.85947 8.35565 4.70624 8.45804 4.57717 8.58711C4.44809 8.71619 4.34571 8.86942 4.27585 9.03806C4.206 9.20671 4.17004 9.38745 4.17004 9.56999V13.52ZM5.17004 13.52H10.85V9.56999C10.85 9.51878 10.84 9.46807 10.8204 9.42075C10.8008 9.37343 10.772 9.33043 10.7358 9.29422C10.6996 9.25801 10.6566 9.22928 10.6093 9.20968C10.562 9.19008 10.5113 9.17999 10.46 9.17999H5.56004C5.50883 9.17999 5.45811 9.19008 5.4108 9.20968C5.36348 9.22928 5.32049 9.25801 5.28427 9.29422C5.24806 9.33043 5.21933 9.37343 5.19973 9.42075C5.18013 9.46806 5.17004 9.51878 5.17004 9.56999V13.52ZM5.17004 2.99822V4.67C5.17004 4.77343 5.21113 4.87263 5.28427 4.94577C5.35741 5.01891 5.45661 5.06 5.56004 5.06H8.68004C8.78348 5.06 8.88268 5.01891 8.95582 4.94577C9.02895 4.87263 9.07004 4.77344 9.07004 4.67V4.03789L5.17004 2.99822ZM9.07004 4.03747V2.5H5.17004V2.99804L9.07004 4.03747Z" fill="currentColor"/>
</svg>

<svg xmlns="http://www.w3.org/2000/svg" fill="none" viewBox="0 0 16 16">
  <path fill="currentColor" fill-rule="evenodd" d="M3.519 2.558A1.42 1.42 0 0 1 3.92 2.5h.25v.232l-.651-.174Zm0 0-1.31-.35A2.42 2.42 0 0 1 3.92 1.5h6.61c.371 0 .719.142.984.406l2.6 2.6a1.39 1.39 0 0 1 .406.984l-1.141-.304-2.573-2.572a.377.377 0 0 0-.276-.114h-.46v1.804l3.309.882-3.309-.882v.366a1.39 1.39 0 0 1-1.39 1.39H5.56a1.39 1.39 0 0 1-1.39-1.39V2.732l-.652-.174ZM4.17 13.52h-.25A1.42 1.42 0 0 1 2.5 12.1V3.92a1.42 1.42 0 0 1 1.018-1.362l-1.31-.35A2.42 2.42 0 0 0 1.5 3.92v8.18a2.42 2.42 0 0 0 2.42 2.42h8.18a2.42 2.42 0 0 0 2.42-2.42V5.49l-1.14-.303.026.026a.39.39 0 0 1 .114.276V12.1a1.42 1.42 0 0 1-1.42 1.42h-.25V9.57a1.39 1.39 0 0 0-1.39-1.39h-4.9a1.39 1.39 0 0 0-1.39 1.39v3.95Zm1 0h5.68V9.57a.39.39 0 0 0-.39-.39h-4.9a.39.39 0 0 0-.39.39v3.95Zm0-10.522V4.67a.39.39 0 0 0 .39.39h3.12a.39.39 0 0 0 .39-.39v-.632l-3.9-1.04Zm3.9 1.04V2.5h-3.9v.498l3.9 1.04Z" clip-rule="evenodd"/>
</svg>
